X: 13116
T: Fireplace, The
R: reel
M: 4/4
K: Dmajor
|:AFFF dFFF|defe dBBB|AFFF DFAF|EFGF EFGB|
AFFF dFFF|defe dBBB|AFFF DEFD|1 EGFE D3B:|2 EGFE D4||
|:FAAA defa|gefe dBBB|GEEE EFGE|FABA FDDE|
FAAA defa|gefd efdB|AFFF DEFD|EGFE D4:|

